X: 043
T: Miss Jane Campbell's Strathspey
B: John Pringle "Collection of Reels Strathspeys & Jigs", 1801 p.4#3
Z: 2011 John Chambers <jc:trillian.mit.edu>
R: strathspey
M: C
L: 1/8
K: G
V: 1
|: D<GG<g | B<G~B2 | D<GG<g {c}BGBg | D<GG<g B<GTB2 | c>AB>G {B}A>GE<A :|
|: g<gg>b {b}ag/f/ Tg2 | e>fg>a bgab | e>fge d<B~cd | e<gd>B (c/B/).A/.G/ E<A :|
V: 2 clef=bass middle=d
|: [g2G2][g2G2] [g2G2][g2G2] | [g2G2][g2G2] [g2G2][g2G2] |\
   [g2G2][g2G2] [g2G2][g2G2] | [a2A2][g2G2] [d2D2][c2C2] :|
|: [g2G2][g2G2] [g2G2][g2G2] | [e2E2][e2E2] [^d2B2][e2E2] |\
   [c'2c2][c'2c2] [g2G2][g2G2] | [c2C2][g2G2] [d2D2][c2C2] :|

%%sep 2 1 500

